X:809
T:Brolum, The
O:england
M:4/4
L:1/8
C:Dr. Charles Bannaty
R:Reel
A:|
K:A
f|"A"e2 ce "D"fefa|"A"A2 cB ce ef|"A"e2 ce "D"fe fa|"Bm"B2 ce "E7"fB Bf|
"A"e2 ce "D"fe fa|"A"A2 cB ce ef|"A"ec ae "D"f2 "A"ec|"E7"B2 cB "A"AA A:
|
|:e|"A"A2 cA eA cA|"F#m"A2 cB "A"ce ef|"A"A2cA eA cA|"Bm"B2 ce "E7"fB Be
|
"A"A2 cA eA cA|"A"A2 cB ce ef|"A"ec ae "D"f2 "A"ec|"E7"B2 cB "A"AA A :|
|:e|"D"a2 af "A"e2 ce|"F#m"A2 cB ce ef|"D"a2 af "A"e2 ce|"Bm"B2 ce "E7"f
B Be|
"D"a2 af "A"e2 ce|"F#m"A2 cB ce ef|"A"ec ae "D"f2 "A"ec|"E7"B2 cB "A"
AA A:|
|:c|"A"AA Ac AA Ac|"F#m"A2 cB "A"ce ef|"A"AA Ac AA Ac|"Bm"B2 ce "E7"fB B
e|"A"AA Ac AA Ac|"F#m"A2 cB "A"ce ef|"A"ec ae "D"f2 "A"ec|"E7"B2 cB "A"
AA A||


